!!!COM: Music21
!!!OTL: Rumba de Romeor
!!!OMV: pezas_rumbas_rumba-de-romeor_rumba-de-romeor-partitura.musicxml
**kern
*I"Bagpipes
*I'Bag
*clefG^2
*k[]
*M2/4
=1
!LO:TX:a:t=Andante
*MM96
!LO:TX:a:t=[quarter]=96
4.r
16ccLL
16eeJJ
=||
16ggLL
16aa
16gg
16eeJJ
16ggLL
16aa
16gg
16eeJJ
=
8gg
4ccc
16bbLL
16aaJJ
=
16ggLL
16aa
16gg
16eeJJ
16ggLL
16aa
16gg
16eeJJ
=
8ff
4ff
16ddLL
16eeJJ
=
16ffLL
16gg
16ff
16ddJJ
16ffLL
16gg
16ff
16ddJJ
=
8ff
4bb
8aa
!!linebreak:original
=
8.ggL
16ggJk
8ffL
16eeL
16ffJJ
=
4.gg
16ccLL
16eeJJ
=||
16ggLL
16aa
16gg
16eeJJ
16ggLL
16aa
16gg
16eeJJ
=
8gg
4ccc
16bbLL
16aaJJ
=
16ggLL
16aa
16gg
16eeJJ
16ggLL
16aa
16gg
16eeJJ
=
8ff
4ff
16ddLL
16eeJJ
=
16ffLL
16gg
16ff
16ddJJ
16ffLL
16gg
16ff
16ddJJ
!!linebreak:original
=
8ff
4bb
8aa
=
8.ggL
16ggJk
8ggL
16aaL
16bbJJ
=
4.ccc
8gg
=||
8ggL
8ggJ
8ggL
16eeL
16ggJJ
=
8gg
4gg
16aaLL
16bbJJ
=
8cccL
16bbL
16aaJJ
8ggL
16eeL
16ggJJ
=
8gg
4gg
16ffLL
16ggJJ
!!linebreak:original
=
8aaL
16ggL
16ffJJ
8eeL
16ccL
16ddJJ
=
8ee
4ee
16ddLL
16eeJJ
=
8ffL
16eeL
16ddJJ
[4cc
=
4.cc]
8gg
=||
8ggL
8ggJ
8ggL
16eeL
16ggJJ
=
8gg
4gg
16aaLL
16bbJJ
=
8cccL
16bbL
16aaJJ
8ggL
16eeL
16ggJJ
=
8gg
4gg
16ffLL
16ggJJ
!!linebreak:original
=
8aaL
16ggL
16ffJJ
8eeL
16ccL
16ddJJ
=
8ee
4ee
16ddLL
16eeJJ
=||
8ffL
16eeL
16ddJJ
[4cc
=
4cc]
8r
16ccLL
16eeJJ
=||
8ffL
16eeL
16ddJJ
[4cc
=
4cc]
8ccc
8r
==
*-
